X:22
T:Langstrom's Pony
T:Langstern Pony, The
R:jig
D:Mary Bergin: Feadoga Stain.
D:De Dannan: Mist Covered Mountain.
Z:id:hn-jig-22
M:6/8
K:Amix
fed cAA|EAA cAA|fed cAd|BGB dcB|fed cAA|EAA cAA|faf gfe|dBG Bcd:|
|:cee dff|cee ecA|cee efg|dBG Bcd|cee dff|cee efg|faf gfe|dBG Bcd:|
|:A2a a^ga|ecA ecA|GBd ~g3|BAG Bcd|eaf ~g2e|fed ecA|faf gfe|dBG Bcd:|
|:AEA ~A2B|cBc ecB|AEA ~A2=c|BGB dcB|AEA ~A2B|cAc efg|faf gfe|dBG Bcd:|
